svgs/octopi_launcher.svg

<svg width="192" height="192" viewBox="0 0 192 192" fill="none" xmlns="http://www.w3.org/2000/svg">
<path d="M116 150V92.1735C116 90.1882 115.018 88.3313 113.377 87.214L72.3767 59.2991C70.3393 57.9119 67.6607 57.9119 65.6233 59.2991L24.6233 87.214C22.9821 88.3313 22 90.1882 22 92.1735V150C22 153.314 24.6863 156 28 156H49C52.3137 156 55 153.314 55 150V122C55 118.686 57.6863 116 61 116H77C80.3137 116 83 118.686 83 122V150C83 153.314 85.6863 156 89 156H110C113.314 156 116 153.314 116 150Z" stroke="black" stroke-width="12" stroke-linejoin="round"/>
<path d="M136 156H164C167.314 156 170 153.314 170 150V42C170 38.6863 167.314 36 164 36H87.5C84.4624 36 82 38.4624 82 41.5" stroke="black" stroke-width="12" stroke-linecap="round" stroke-linejoin="round"/>
<rect x="137" y="118" width="8" height="8" rx="2" stroke="black" stroke-width="8" stroke-linejoin="round"/>
<rect x="137" y="92" width="8" height="8" rx="2" stroke="black" stroke-width="8" stroke-linejoin="round"/>
<rect x="137" y="66" width="8" height="8" rx="2" stroke="black" stroke-width="8" stroke-linejoin="round"/>
</svg>

<svg xmlns="http://www.w3.org/2000/svg" width="192" height="192" fill="none" viewBox="0 0 192 192"><path stroke="#000" stroke-linejoin="round" stroke-width="12" d="M116 150V92.174a6 6 0 0 0-2.623-4.96l-41-27.915a6 6 0 0 0-6.754 0l-41 27.915A6 6 0 0 0 22 92.174V150a6 6 0 0 0 6 6h21a6 6 0 0 0 6-6v-28a6 6 0 0 1 6-6h16a6 6 0 0 1 6 6v28a6 6 0 0 0 6 6h21a6 6 0 0 0 6-6Z"/><path stroke="#000" stroke-linecap="round" stroke-linejoin="round" stroke-width="12" d="M136 156h28a6 6 0 0 0 6-6V42a6 6 0 0 0-6-6H87.5a5.5 5.5 0 0 0-5.5 5.5"/><rect width="8" height="8" x="137" y="118" stroke="#000" stroke-linejoin="round" stroke-width="8" rx="2"/><rect width="8" height="8" x="137" y="92" stroke="#000" stroke-linejoin="round" stroke-width="8" rx="2"/><rect width="8" height="8" x="137" y="66" stroke="#000" stroke-linejoin="round" stroke-width="8" rx="2"/></svg>
